X:1
T: Miss Douglas's
C:R. Mackintosh
R:Strathspey
Q: 128
K:G
M:4/4
L:1/16
|:d2|B4 Gd3 B4 GB3|E2FG A3G FD3 Dc3|B4 GB3 c4 Aa3|fd3 e3f g3a g2d2|
B4 Gd3 B4 GB3|E2FG A3G FD3 Dc3|B4 GB3 c4 Aa3|f2d2 e2f2 gG3 G2d2|
efg2 dg3 cg3 BG3|A3c BG3 EA3 FD3|efg2 dg3 cg3 BG3|Ae3 d3c BG3 Gd3|
efg2 dg3 cg3 BG3|A3c BG3 EA3 FD3|E4 CE3 F4 Dc3|Bd3 Ac3 B2G2 G2:|
